_includes/icons/ios-console.svg

<svg fill="#666" height="50" viewBox="0 0 50 50" width="50" xmlns="http://www.w3.org/2000/svg"><path d="m2.84375 3c-1.558594 0-2.84375 1.285156-2.84375 2.84375v4.96875c-.00390625.042969-.00390625.082031 0 .125v35.0625c0 .550781.449219 1 1 1h48c.550781 0 1-.449219 1-1v-35c0-.03125 0-.0625 0-.09375v-5.0625c0-1.558594-1.285156-2.84375-2.84375-2.84375zm0 2h44.3125c.480469 0 .84375.363281.84375.84375v4.15625h-46v-4.15625c0-.480469.363281-.84375.84375-.84375zm-.84375 7h46v33h-46zm12.90625 7.9375c-.378906.058594-.691406.328125-.804687.691406-.113282.367188-.007813.765625.273437 1.027344l5.21875 5.375-5.375 5.21875c-.398437.386719-.402344 1.023438-.015625 1.421875.386719.398438 1.023438.402344 1.421875.015625l6.0625-5.9375.71875-.6875-.6875-.71875-5.9375-6.09375c-.179687-.191406-.425781-.300781-.6875-.3125-.0625-.007812-.125-.007812-.1875 0zm7.90625 12.0625c-.550781.050781-.957031.542969-.90625 1.09375s.542969.957031 1.09375.90625h13c.359375.003906.695313-.183594.878906-.496094.179688-.3125.179688-.695312 0-1.007812-.183593-.3125-.519531-.5-.878906-.496094h-13c-.03125 0-.0625 0-.09375 0s-.0625 0-.09375 0z"/></svg>

<svg xmlns="http://www.w3.org/2000/svg" viewBox="0 0 50 50" width="50" height="50" fill="#666"><path d="M 2.84375 3 C 1.285156 3 0 4.285156 0 5.84375 L 0 10.8125 C -0.00390625 10.855469 -0.00390625 10.894531 0 10.9375 L 0 46 C 0 46.550781 0.449219 47 1 47 L 49 47 C 49.550781 47 50 46.550781 50 46 L 50 11 C 50 10.96875 50 10.9375 50 10.90625 L 50 5.84375 C 50 4.285156 48.714844 3 47.15625 3 Z M 2.84375 5 L 47.15625 5 C 47.636719 5 48 5.363281 48 5.84375 L 48 10 L 2 10 L 2 5.84375 C 2 5.363281 2.363281 5 2.84375 5 Z M 2 12 L 48 12 L 48 45 L 2 45 Z M 14.90625 19.9375 C 14.527344 19.996094 14.214844 20.265625 14.101563 20.628906 C 13.988281 20.996094 14.09375 21.394531 14.375 21.65625 L 19.59375 27.03125 L 14.21875 32.25 C 13.820313 32.636719 13.816406 33.273438 14.203125 33.671875 C 14.589844 34.070313 15.226563 34.074219 15.625 33.6875 L 21.6875 27.75 L 22.40625 27.0625 L 21.71875 26.34375 L 15.78125 20.25 C 15.601563 20.058594 15.355469 19.949219 15.09375 19.9375 C 15.03125 19.929688 14.96875 19.929688 14.90625 19.9375 Z M 22.8125 32 C 22.261719 32.050781 21.855469 32.542969 21.90625 33.09375 C 21.957031 33.644531 22.449219 34.050781 23 34 L 36 34 C 36.359375 34.003906 36.695313 33.816406 36.878906 33.503906 C 37.058594 33.191406 37.058594 32.808594 36.878906 32.496094 C 36.695313 32.183594 36.359375 31.996094 36 32 L 23 32 C 22.96875 32 22.9375 32 22.90625 32 C 22.875 32 22.84375 32 22.8125 32 Z"/></svg>
